X:1
T:Title
%%score { ( 1 3 ) | ( 2 4 ) }
L:1/8
Q:1/4=100
M:4/4
K:Bb
V:1 treble nm="Grand Piano"
V:3 treble 
V:2 bass 
V:4 bass 
V:1
 [DB]2 [FA]2 [EG]2 [DF]2 | [B,D]2 [EG]2 [DF]4 | G2 F2 [EA]2 [DB]2 | z4 c4 | %4
w: Robert~Lowry * * *||||
 [DB]2 [FA]2 [EG]2 [DF]2 | [DB]2 [B,D]2 [DF]4 | F2 A2 c2 A2 | [=EG]3 F z2 _E2 | %8
w: ||||
 [DF]2 [DF]2 [DF]2 z2 | G2 G2 G2 z2 | A2 A2 A2 c2 | [Ec]2 [DB]2 [DF]2 z2 | G2 G2 G2 z2 | %13
w: |||||
 [DF]2 [DF]2 [DF]2 z2 | [FB]2 c2 d2 [FB]2 | [Ec]3 [DB] [DB]4 |] %16
w: |||
V:2
 [B,,F,]2 [B,,F,]2 [B,,B,]2 [B,,B,]2 | [B,,F,]2 [B,,B,]2 [B,,B,]4 | %2
 [E,B,E]2 [D,B,]2 [C,F,]2 [B,,B,]2 | z4 F2 z2 | [B,,B,]2 [B,,B,]2 [B,,B,]2 [B,,B,]2 | %5
 [B,,F,]2 [B,,F,]2 [B,,B,]4 | [F,A,C]2 [F,CF]2 [F,A,F]2 [F,CF]2 | [C,B,]3 [F,A,] [F,A,]4 | %8
 [B,,B,]2 [B,,B,]2 [B,,B,]2 z2 | [E,B,E]2 [E,B,E]2 [E,B,E]2 z2 | [F,E]2 [F,C]2 [F,C]2 [F,E]2 | %11
 [B,,F,]2 [B,,F,]2 [B,,B,]2 z2 | [E,B,E]2 [E,B,E]2 [E,B,E]2 z2 | [B,,B,]2 [B,,B,]2 [B,,B,]2 z2 | %14
 [D,B,]2[K:treble] [F,A,F]2 [B,F]2[K:bass] [D,B,]2 | [F,A,]3 [B,,B,] [B,,B,]4 |] %16
V:3
 x8 | x8 | x8 | d3 c z2 E2 | x8 | x8 | x8 | z4 F4 | x8 | x8 | x8 | x8 | x8 | x8 | x8 | x8 |] %16
V:4
 x8 | x8 | x8 | [F,B,F]3 [F,A,F] [F,A,]4 | x8 | x8 | x8 | x8 | x8 | x8 | x8 | x8 | x8 | x8 | %14
 x2[K:treble] x4[K:bass] x2 | x8 |] %16

